Adwaita++-Light/panel/16/audio-recorder-paused.svg

<svg height="16" width="16" xmlns="http://www.w3.org/2000/svg">
  <g fill="#444">
    <path d="m3.8339844 6.024672c-.4602371 0-.8339844.3917509-.8339844.875-.0000997.032541.00251.065306.00586.097656.0517855 2.078429 1.7447232 3.877564 3.99414 4.27611v.726562h-2c-.554 0-1 .446-1 1s.446 1 1 1h5.564453.435547c.554 0 1-.446 1-1s-.446-1-1-1h-2v-.726562c2.252569-.399125 3.948746-2.203541 3.996094-4.2858754.003-.028949.0037-.058771.0039-.087891 0-.4832491-.373747-.875-.833984-.875-.460237.0000006-.832032.3917513-.832032.875h-.01367c-.069604 1.8093132-1.175806 2.7253284-3.320308 2.7253284-2.1446648 0-3.2507112-.9160152-3.3203125-2.725328h-.013672c0-.4832495-.3717939-.8750005-.8320311-.875z"/>
    <path d="m8 1c-1.662 0-3 1.48717-3 3.3339844v1.3320312c0 1.8468144 1.338 3.3339844 3 3.3339844s3-1.48717 3-3.3339844v-1.3320312c0-1.8468144-1.338-3.3339844-3-3.3339844zm-2 2.5h1v3h-1zm3 0h1v3h-1z" opacity=".3"/>
  </g>
</svg>

<svg xmlns="http://www.w3.org/2000/svg" width="16" height="16" version="1.1">
 <defs>
  <style id="current-color-scheme" type="text/css">
   .ColorScheme-Text { color:#444444; } .ColorScheme-Highlight { color:#4285f4; }
  </style>
 </defs>
 <path style="fill:currentColor" class="ColorScheme-Text" d="M 3.8339844,6.024672 C 3.3737473,6.024672 3,6.4164229 3,6.899672 2.9999003,6.932213 3.00251,6.964978 3.00586,6.997328 3.0576455,9.075757 4.7505832,10.874892 7,11.273438 V 12 H 5 c -0.554,0 -1,0.446 -1,1 0,0.554 0.446,1 1,1 H 10.564453 11 c 0.554,0 1,-0.446 1,-1 0,-0.554 -0.446,-1 -1,-1 H 9 v -0.726562 c 2.252569,-0.399125 3.948746,-2.203541 3.996094,-4.2858754 0.003,-0.028949 0.0037,-0.058771 0.0039,-0.087891 0,-0.4832491 -0.373747,-0.875 -0.833984,-0.875 -0.460237,6e-7 -0.832032,0.3917513 -0.832032,0.875 h -0.01367 C 11.250704,8.7089848 10.144502,9.625 8,9.625 5.8553352,9.625 4.7492888,8.7089848 4.6796875,6.899672 h -0.013672 c 0,-0.4832495 -0.3717939,-0.8750005 -0.8320311,-0.875 z"/>
 <path style="opacity:0.3;fill:currentColor" class="ColorScheme-Text" d="M 8,1 C 6.338,1 5,2.48717 5,4.3339844 V 5.6660156 C 5,7.51283 6.338,9 8,9 9.662,9 11,7.51283 11,5.6660156 V 4.3339844 C 11,2.48717 9.662,1 8,1 Z M 6,3.5 h 1 v 3 H 6 Z m 3,0 h 1 v 3 H 9 Z"/>
</svg>
